web/packages/design/src/ResourceIcon/assets/frame.io-dark.svg

<svg width="72" height="72" viewBox="0 0 72 72" fill="none" xmlns="http://www.w3.org/2000/svg">
<g clip-path="url(#clip0_15940_7386)">
<path d="M8.11625 72.0005C5.17695 72.0005 3.23084 68.9341 4.29389 66.2024C8.03248 56.5724 9.94555 46.3307 9.93531 36.0005C9.93531 25.3487 7.93625 15.165 4.29389 5.79861C3.23084 3.06684 5.17695 0.000488281 8.11625 0.000488281C9.71507 0.000488281 11.1657 0.949194 11.7544 2.43155C15.9675 13.1213 18.1244 24.5104 18.1115 36.0005C18.1244 47.4905 15.9675 58.8797 11.7544 69.5694C11.461 70.2923 10.9574 70.9104 10.3088 71.3439C9.66014 71.7773 8.89634 72.006 8.11625 72.0005ZM27.7172 63.8475C25.0278 63.8475 23.088 61.2746 23.6958 58.6593C25.4207 51.2299 26.2897 43.6275 26.2857 36.0005C26.2857 28.2075 25.3899 20.6221 23.6958 13.3417C23.088 10.7264 25.0278 8.15343 27.7193 8.15343C29.5511 8.15343 31.1605 9.37743 31.5819 11.1563C33.5008 19.2982 34.4673 27.6355 34.4619 36.0005C34.4619 44.5515 33.4645 52.8676 31.5819 60.8447C31.3713 61.7078 30.8751 62.4743 30.1739 63.0199C29.4727 63.5654 28.6077 63.8578 27.7193 63.8497M46.2466 51.6224C43.7817 51.6224 41.8885 49.4581 42.1193 47.0144C42.8102 39.688 42.8102 32.3129 42.1193 24.9866C41.8885 22.5428 43.7817 20.3786 46.2445 20.3786C48.2986 20.3786 50.0351 21.9012 50.232 23.9363C51.0065 31.9604 51.0065 40.0405 50.232 48.0647C50.0351 50.1019 48.2965 51.6224 46.2445 51.6224M62.957 30.7911L65.2927 33.1205C65.6718 33.4982 65.9725 33.9471 66.1777 34.4413C66.383 34.9355 66.4886 35.4654 66.4886 36.0005C66.4886 36.5356 66.383 37.0655 66.1777 37.5597C65.9725 38.0539 65.6718 38.5028 65.2927 38.8805L62.957 41.2099C61.2417 42.9231 58.3045 41.7097 58.3045 39.2892V32.7097C58.3045 30.2913 61.2395 29.0779 62.957 30.789" fill="white"/>
</g>
<defs>
<clipPath id="clip0_15940_7386">
<rect width="72" height="72" fill="white" transform="translate(0 0.000488281)"/>
</clipPath>
</defs>
</svg>

<svg xmlns="http://www.w3.org/2000/svg" width="72" height="72" fill="none" viewBox="0 0 72 72"><g clip-path="url(#clip0_15940_7386)"><path fill="#fff" d="M8.116 72c-2.939 0-4.885-3.066-3.822-5.798a83.2 83.2 0 0 0 5.641-30.201c0-10.652-1.999-20.836-5.641-30.202C3.23 3.067 5.177 0 8.116 0c1.6 0 3.05.95 3.638 2.432A91.3 91.3 0 0 1 18.112 36a91.3 91.3 0 0 1-6.358 33.568A3.9 3.9 0 0 1 8.116 72m19.601-8.153c-2.69 0-4.629-2.572-4.021-5.188a100 100 0 0 0 2.59-22.658 100 100 0 0 0-2.59-22.66c-.608-2.615 1.332-5.188 4.023-5.188 1.832 0 3.441 1.224 3.863 3.003a108 108 0 0 1 2.88 24.845c0 8.55-.998 16.867-2.88 24.844a3.94 3.94 0 0 1-3.863 3.005m18.528-12.228c-2.465 0-4.358-2.164-4.128-4.608.691-7.326.691-14.701 0-22.027-.23-2.444 1.663-4.608 4.126-4.608 2.054 0 3.79 1.522 3.987 3.557.775 8.024.775 16.105 0 24.129-.197 2.037-1.935 3.557-3.987 3.557m16.712-20.83 2.336 2.328a4.065 4.065 0 0 1 0 5.76l-2.336 2.33c-1.715 1.713-4.653.5-4.653-1.92v-6.58c0-2.419 2.935-3.632 4.653-1.921"/></g><defs><clipPath id="clip0_15940_7386"><path fill="#fff" d="M0 0h72v72H0z"/></clipPath></defs></svg>
